X: 286
T: Johnny Don't Get Drunk
B: canberra pickers and fiddlers
B: tunes
M:4/4
L:1/8
Q: 1/4=100
K:D
V:1 
"D"fa2fa2 ag | fd ec d2 dA | "G"BA Bc dB AG | "A"FE2FE2ED |
"D"fa2ba2 ag | fd ec d2 dA | "G"BA Bc dB AG |1 "A"FD EF "D"D4 :|2 "A"FD EF "D"D2 DE ||
|:"D"FA2BA2DE | FG AB A2AA | "G"BA Bc dB AG | "A"FE2FE2 DD |
"D"FA2BA2Ad | "G"BA Bc "D"d2AA | "G"BA Bc dB AG | "A"FD EF "D"D2D2 :|
% abcbook-tune_id 63da59349b92a4d665a1ad71
% abcbook-tune_composer_id 
% abcbook-link-0 https://www.youtube.com/watch?v=2WvaeilpcRc
% abcbook-boost 0
% abcbook-difficulty 0
% abcbook-tags canberra pickers and fiddlers,old time tunes,© free
% abcbook-tablature 
% abcbook-transpose 
% abcbook-tuning ADAE
% abcbook-lastupdated 1675254068533
% abcbook-src-url https://tunebook.net/scrape/tunes.abc
% abcbook-soundfonts 
% abcbook-repeats 1
%%gchordfont "itim-music,Itim" 20

